src/assets/icons/security/unlock.svg

<?xml version="1.0" encoding="UTF-8" standalone="no"?>
<svg
   width="28pt"
   height="28pt"
   viewBox="0 0 28 28"
   version="1.1"
   id="svg918"
   xmlns="http://www.w3.org/2000/svg"
   xmlns:svg="http://www.w3.org/2000/svg">
  <defs
     id="defs922" />
  <g
     id="surface1-9"
     transform="scale(2)">
    <path
       style="fill:#000000;fill-opacity:1;fill-rule:nonzero;stroke:none"
       d="m 6.273438,7.535156 c -0.402344,0 -0.726563,0.324219 -0.726563,0.730469 0,0.265625 0.148437,0.5 0.363281,0.628906 V 9.703125 H 6.636719 V 8.894531 C 6.855469,8.765625 7,8.53125 7,8.265625 7,7.859375 6.675781,7.535156 6.273438,7.535156 Z m 0,0"
       id="path824" />
    <path
       style="fill:#000000;fill-opacity:1;fill-rule:nonzero;stroke:none"
       d="M 7,0 C 3.132812,0 0,3.132812 0,7 c 0,3.867188 3.132812,7 7,7 3.867188,0 7,-3.132812 7,-7 C 14,3.132812 10.867188,0 7,0 Z m 4.804688,6.273438 H 10.59375 V 4.96875 c 0,-0.609375 -0.5,-1.109375 -1.109375,-1.109375 -0.609375,0 -1.109375,0.5 -1.109375,1.109375 v 1.183594 h 0.046875 c 0.457031,0 0.824219,0.371094 0.824219,0.824218 v 2.65625 c 0,0.453126 -0.367188,0.820313 -0.824219,0.820313 H 4.125 c -0.457031,0 -0.824219,-0.367187 -0.824219,-0.820313 v -2.65625 c 0,-0.453124 0.367188,-0.824218 0.824219,-0.824218 H 7.164062 V 4.96875 c 0,-1.277344 1.039063,-2.320312 2.320313,-2.320312 1.28125,0 2.320313,1.042968 2.320313,2.320312 z m 0,0"
       id="path826" />
  </g>
</svg>

<?xml version="1.0" encoding="UTF-8"?>
<svg xmlns="http://www.w3.org/2000/svg" xmlns:xlink="http://www.w3.org/1999/xlink" width="14pt" height="14pt" viewBox="0 0 14 14" version="1.1">
<g id="surface1">
<path style=" stroke:none;fill-rule:nonzero;fill:rgb(0%,0%,0%);fill-opacity:1;" d="M 6.273438 7.535156 C 5.871094 7.535156 5.546875 7.859375 5.546875 8.265625 C 5.546875 8.53125 5.695312 8.765625 5.910156 8.894531 L 5.910156 9.703125 L 6.636719 9.703125 L 6.636719 8.894531 C 6.855469 8.765625 7 8.53125 7 8.265625 C 7 7.859375 6.675781 7.535156 6.273438 7.535156 Z M 6.273438 7.535156 "/>
<path style=" stroke:none;fill-rule:nonzero;fill:rgb(0%,0%,0%);fill-opacity:1;" d="M 7 0 C 3.132812 0 0 3.132812 0 7 C 0 10.867188 3.132812 14 7 14 C 10.867188 14 14 10.867188 14 7 C 14 3.132812 10.867188 0 7 0 Z M 11.804688 6.273438 L 10.59375 6.273438 L 10.59375 4.96875 C 10.59375 4.359375 10.09375 3.859375 9.484375 3.859375 C 8.875 3.859375 8.375 4.359375 8.375 4.96875 L 8.375 6.152344 L 8.421875 6.152344 C 8.878906 6.152344 9.246094 6.523438 9.246094 6.976562 L 9.246094 9.632812 C 9.246094 10.085938 8.878906 10.453125 8.421875 10.453125 L 4.125 10.453125 C 3.667969 10.453125 3.300781 10.085938 3.300781 9.632812 L 3.300781 6.976562 C 3.300781 6.523438 3.667969 6.152344 4.125 6.152344 L 7.164062 6.152344 L 7.164062 4.96875 C 7.164062 3.691406 8.203125 2.648438 9.484375 2.648438 C 10.765625 2.648438 11.804688 3.691406 11.804688 4.96875 Z M 11.804688 6.273438 "/>
</g>
</svg>
